svg/emoji_u1f683.svg

<svg enable-background="new 0 0 128 128" viewBox="0 0 128 128" xmlns="http://www.w3.org/2000/svg" xmlns:xlink="http://www.w3.org/1999/xlink"><rect x="4.04" y="101" width="119.85" height="21.99" fill="#8D6E63"/><rect x="4.04" y="101" width="119.92" height="7" fill="#424242"/><g opacity=".2"><path d="m122 103v18h-116v-18h116m2-2h-120v22h120v-22z" fill="#eee"/></g><g fill="#212121"><circle cx="18" cy="99" r="6"/><circle cx="34" cy="99" r="6"/><circle cx="94" cy="99" r="6"/><circle cx="110" cy="99" r="6"/></g><linearGradient id="e" x1="64.083" x2="64.083" y1="28" y2="99" gradientUnits="userSpaceOnUse"><stop stop-color="#FFEB3B" offset=".0038323"/><stop stop-color="#FCC830" offset=".8197"/><stop stop-color="#FBC02D" offset="1"/></linearGradient><path d="m115.94 99h-103.71c-3.3 0-6-2.7-6-6v-59c0-3.31 2.69-6 6-6h103.71c3.31 0 6 2.69 6 6v59c0 3.3-2.7 6-6 6z" fill="url(#e)"/><rect x="6.11" y="79.66" width="115.83" height="11.32" fill="#689F38"/><defs><path id="d" d="m115.94 99h-103.71c-3.3 0-6-2.7-6-6v-59c0-3.31 2.69-6 6-6h103.71c3.31 0 6 2.69 6 6v59c0 3.3-2.7 6-6 6z"/></defs><clipPath id="b"><use xlink:href="#d"/></clipPath><rect x="3.83" y="18.75" width="120.51" height="17.25" clip-path="url(#b)" fill="#689F38"/><g clip-path="url(#b)"><path d="M21,74H5.6c-2.21,0-4-1.79-4-4V49.75c0-2.21,1.79-4,4-4H21c2.21,0,4,1.79,4,4V70 C25,72.21,23.21,74,21,74z" fill="#4FC3F7"/></g><g clip-path="url(#b)" opacity=".2"><path d="m21 47.75c1.1 0 2 0.9 2 2v20.25c0 1.1-0.9 2-2 2h-15.4c-1.1 0-2-0.9-2-2v-20.25c0-1.1 0.9-2 2-2h15.4m0-2h-15.4c-2.21 0-4 1.79-4 4v20.25c0 2.21 1.79 4 4 4h15.4c2.21 0 4-1.79 4-4v-20.25c0-2.21-1.79-4-4-4z" fill="#424242"/></g><path d="m44.25 69.08h-9.15c-2.21 0-4-1.79-4-4v-15.33c0-2.21 1.79-4 4-4h9.14c2.21 0 4 1.79 4 4v15.33c0.01 2.21-1.78 4-3.99 4z" fill="#4FC3F7"/><g opacity=".2"><path d="m44.25 47.75c1.1 0 2 0.9 2 2v15.33c0 1.1-0.9 2-2 2h-9.15c-1.1 0-2-0.9-2-2v-15.33c0-1.1 0.9-2 2-2h9.15m0-2h-9.15c-2.21 0-4 1.79-4 4v15.33c0 2.21 1.79 4 4 4h9.14c2.21 0 4-1.79 4-4v-15.33c0.01-2.21-1.78-4-3.99-4z" fill="#424242"/></g><path d="m66.37 68.89h-9.14c-2.21 0-4-1.79-4-4v-15.34c0-2.21 1.79-4 4-4h9.14c2.21 0 4 1.79 4 4v15.33c0 2.22-1.79 4.01-4 4.01z" fill="#4FC3F7"/><g opacity=".2"><path d="m66.37 47.55c1.1 0 2 0.9 2 2v15.33c0 1.1-0.9 2-2 2h-9.14c-1.1 0-2-0.9-2-2v-15.33c0-1.1 0.9-2 2-2h9.14m0-2h-9.14c-2.21 0-4 1.79-4 4v15.33c0 2.21 1.79 4 4 4h9.14c2.21 0 4-1.79 4-4v-15.33c0-2.21-1.79-4-4-4z" fill="#424242"/></g><path d="m88.5 69.08h-9.14c-2.21 0-4-1.79-4-4v-15.33c0-2.21 1.79-4 4-4h9.14c2.21 0 4 1.79 4 4v15.33c0 2.21-1.79 4-4 4z" fill="#4FC3F7"/><g opacity=".2"><path d="m88.5 47.75c1.1 0 2 0.9 2 2v15.33c0 1.1-0.9 2-2 2h-9.14c-1.1 0-2-0.9-2-2v-15.33c0-1.1 0.9-2 2-2h9.14m0-2h-9.14c-2.21 0-4 1.79-4 4v15.33c0 2.21 1.79 4 4 4h9.14c2.21 0 4-1.79 4-4v-15.33c0-2.21-1.79-4-4-4z" fill="#424242"/></g><path d="m110.62 69h-9.14c-2.21 0-4-1.79-4-4v-15.33c0-2.21 1.79-4 4-4h9.14c2.21 0 4 1.79 4 4v15.33c0 2.21-1.79 4-4 4z" fill="#4FC3F7"/><g opacity=".2"><path d="m110.62 47.67c1.1 0 2 0.9 2 2v15.33c0 1.1-0.9 2-2 2h-9.14c-1.1 0-2-0.9-2-2v-15.33c0-1.1 0.9-2 2-2h9.14m0-2h-9.14c-2.21 0-4 1.79-4 4v15.33c0 2.21 1.79 4 4 4h9.14c2.21 0 4-1.79 4-4v-15.33c0-2.21-1.79-4-4-4z" fill="#424242"/></g><defs><path id="c" d="m115.94 99h-103.71c-3.3 0-6-2.7-6-6v-59c0-3.31 2.69-6 6-6h103.71c3.31 0 6 2.69 6 6v59c0 3.3-2.7 6-6 6z"/></defs><clipPath id="a"><use xlink:href="#c"/></clipPath><rect x="3.83" y="18.75" width="120.51" height="17.25" clip-path="url(#a)" fill="#689F38"/><g clip-path="url(#a)"><path d="M21,74H5.6c-2.21,0-4-1.79-4-4V49.75c0-2.21,1.79-4,4-4H21c2.21,0,4,1.79,4,4V70 C25,72.21,23.21,74,21,74z" fill="#4FC3F7"/></g><g clip-path="url(#a)" opacity=".2"><path d="m21 48.44c0.72 0 1.31 0.59 1.31 1.31v20.25c0 0.72-0.59 1.31-1.31 1.31h-15.4c-0.72 0-1.31-0.59-1.31-1.31v-20.25c0-0.72 0.59-1.31 1.31-1.31h15.4m0-2.69h-15.4c-2.21 0-4 1.79-4 4v20.25c0 2.21 1.79 4 4 4h15.4c2.21 0 4-1.79 4-4v-20.25c0-2.21-1.79-4-4-4z" fill="#616161"/></g><g opacity=".2"><path d="m115.94 31c1.65 0 3 1.35 3 3v59c0 1.65-1.35 3-3 3h-103.71c-1.65 0-3-1.35-3-3v-59c0-1.65 1.35-3 3-3h103.71m0-3h-103.71c-3.31 0-6 2.69-6 6v59c0 3.3 2.7 6 6 6h103.71c3.3 0 6-2.7 6-6v-59c0-3.31-2.69-6-6-6z" fill="#424242"/></g></svg>

<svg width="128" height="128" style="enable-background:new 0 0 128 128;" xmlns="http://www.w3.org/2000/svg" xmlns:xlink="http://www.w3.org/1999/xlink">
  <rect height="21.99" style="fill:#8D6E63;" width="119.85" x="4.04" y="101"/>
  <rect height="7" style="fill:#424242;" width="119.92" x="4.04" y="101"/>
  <g style="opacity:0.2;">
    <path d="M122,103v5v13H6v-13v-5H122 M124,101h-0.11H4v7v15h120v-15V101L124,101z" style="fill:#EEEEEE;"/>
  </g>
  <g>
    <circle cx="18" cy="99" r="6" style="fill:#212121;"/>
    <circle cx="34" cy="99" r="6" style="fill:#212121;"/>
    <circle cx="94" cy="99" r="6" style="fill:#212121;"/>
    <circle cx="110" cy="99" r="6" style="fill:#212121;"/>
  </g>
  <linearGradient id="SVGID_1_" gradientUnits="userSpaceOnUse" x1="64.0833" x2="64.0833" y1="28" y2="99">
    <stop offset="3.832300e-03" style="stop-color:#FFEB3B"/>
    <stop offset="0.8197" style="stop-color:#FCC830"/>
    <stop offset="1" style="stop-color:#FBC02D"/>
  </linearGradient>
  <path d="M115.94,99H12.23c-3.3,0-6-2.7-6-6V34c0-3.31,2.69-6,6-6h103.71c3.31,0,6,2.69,6,6v59 C121.94,96.3,119.24,99,115.94,99z" style="fill:url(#SVGID_1_);"/>
  <rect height="11.32" style="fill:#689F38;" width="115.83" x="6.11" y="79.66"/>
  <g>
    <defs>
      <path id="SVGID_2_" d="M115.94,99H12.23c-3.3,0-6-2.7-6-6V34c0-3.31,2.69-6,6-6h103.71c3.31,0,6,2.69,6,6v59 C121.94,96.3,119.24,99,115.94,99z"/>
    </defs>
    <clipPath id="SVGID_3_">
      <use style="overflow:visible;" xlink:href="#SVGID_2_"/>
    </clipPath>
    <rect height="17.25" style="clip-path:url(#SVGID_3_);fill:#689F38;" width="120.51" x="3.83" y="18.75"/>
    <g style="clip-path:url(#SVGID_3_);">
      <path d="M21,74H5.6c-2.21,0-4-1.79-4-4V49.75c0-2.21,1.79-4,4-4H21c2.21,0,4,1.79,4,4V70 C25,72.21,23.21,74,21,74z" style="fill:#4FC3F7;"/>
    </g>
    <g style="opacity:0.2;clip-path:url(#SVGID_3_);">
      <path d="M21,47.75c1.1,0,2,0.9,2,2V70c0,1.1-0.9,2-2,2H5.6c-1.1,0-2-0.9-2-2V49.75c0-1.1,0.9-2,2-2H21 M21,45.75H5.6c-2.21,0-4,1.79-4,4V70c0,2.21,1.79,4,4,4H21c2.21,0,4-1.79,4-4V49.75C25,47.54,23.21,45.75,21,45.75L21,45.75z" style="fill:#424242;"/>
    </g>
  </g>
  <g>
    <path d="M44.25,69.08H35.1c-2.21,0-4-1.79-4-4V49.75c0-2.21,1.79-4,4-4h9.14c2.21,0,4,1.79,4,4v15.33 C48.25,67.29,46.46,69.08,44.25,69.08z" style="fill:#4FC3F7;"/>
    <g style="opacity:0.2;">
      <path d="M44.25,47.75c1.1,0,2,0.9,2,2v15.33c0,1.1-0.9,2-2,2H35.1c-1.1,0-2-0.9-2-2V49.75c0-1.1,0.9-2,2-2 H44.25 M44.25,45.75H35.1c-2.21,0-4,1.79-4,4v15.33c0,2.21,1.79,4,4,4h9.14c2.21,0,4-1.79,4-4V49.75 C48.25,47.54,46.46,45.75,44.25,45.75L44.25,45.75z" style="fill:#424242;"/>
    </g>
  </g>
  <g>
    <path d="M66.37,68.89h-9.14c-2.21,0-4-1.79-4-4V49.55c0-2.21,1.79-4,4-4h9.14c2.21,0,4,1.79,4,4v15.33 C70.37,67.1,68.58,68.89,66.37,68.89z" style="fill:#4FC3F7;"/>
    <g style="opacity:0.2;">
      <path d="M66.37,47.55c1.1,0,2,0.9,2,2v15.33c0,1.1-0.9,2-2,2h-9.14c-1.1,0-2-0.9-2-2V49.55c0-1.1,0.9-2,2-2 H66.37 M66.37,45.55h-9.14c-2.21,0-4,1.79-4,4v15.33c0,2.21,1.79,4,4,4h9.14c2.21,0,4-1.79,4-4V49.55 C70.37,47.34,68.58,45.55,66.37,45.55L66.37,45.55z" style="fill:#424242;"/>
    </g>
  </g>
  <g>
    <path d="M88.5,69.08h-9.14c-2.21,0-4-1.79-4-4V49.75c0-2.21,1.79-4,4-4h9.14c2.21,0,4,1.79,4,4v15.33 C92.5,67.29,90.71,69.08,88.5,69.08z" style="fill:#4FC3F7;"/>
    <g style="opacity:0.2;">
      <path d="M88.5,47.75c1.1,0,2,0.9,2,2v15.33c0,1.1-0.9,2-2,2h-9.14c-1.1,0-2-0.9-2-2V49.75c0-1.1,0.9-2,2-2 H88.5 M88.5,45.75h-9.14c-2.21,0-4,1.79-4,4v15.33c0,2.21,1.79,4,4,4h9.14c2.21,0,4-1.79,4-4V49.75 C92.5,47.54,90.71,45.75,88.5,45.75L88.5,45.75z" style="fill:#424242;"/>
    </g>
  </g>
  <g>
    <path d="M110.62,69h-9.14c-2.21,0-4-1.79-4-4V49.67c0-2.21,1.79-4,4-4h9.14c2.21,0,4,1.79,4,4V65 C114.62,67.21,112.83,69,110.62,69z" style="fill:#4FC3F7;"/>
    <g style="opacity:0.2;">
      <path d="M110.62,47.67c1.1,0,2,0.9,2,2V65c0,1.1-0.9,2-2,2h-9.14c-1.1,0-2-0.9-2-2V49.67c0-1.1,0.9-2,2-2 H110.62 M110.62,45.67h-9.14c-2.21,0-4,1.79-4,4V65c0,2.21,1.79,4,4,4h9.14c2.21,0,4-1.79,4-4V49.67 C114.62,47.46,112.83,45.67,110.62,45.67L110.62,45.67z" style="fill:#424242;"/>
    </g>
  </g>
  <g>
    <defs>
      <path id="SVGID_4_" d="M115.94,99H12.23c-3.3,0-6-2.7-6-6V34c0-3.31,2.69-6,6-6h103.71c3.31,0,6,2.69,6,6v59 C121.94,96.3,119.24,99,115.94,99z"/>
    </defs>
    <clipPath id="SVGID_5_">
      <use style="overflow:visible;" xlink:href="#SVGID_4_"/>
    </clipPath>
    <rect height="17.25" style="clip-path:url(#SVGID_5_);fill:#689F38;" width="120.51" x="3.83" y="18.75"/>
    <g style="clip-path:url(#SVGID_5_);">
      <path d="M21,74H5.6c-2.21,0-4-1.79-4-4V49.75c0-2.21,1.79-4,4-4H21c2.21,0,4,1.79,4,4V70 C25,72.21,23.21,74,21,74z" style="fill:#4FC3F7;"/>
    </g>
    <g style="opacity:0.2;clip-path:url(#SVGID_5_);">
      <path d="M21,48.44c0.72,0,1.31,0.59,1.31,1.31V70c0,0.72-0.59,1.31-1.31,1.31H5.6 c-0.72,0-1.31-0.59-1.31-1.31V49.75c0-0.72,0.59-1.31,1.31-1.31H21 M21,45.75H5.6c-2.21,0-4,1.79-4,4V70c0,2.21,1.79,4,4,4H21 c2.21,0,4-1.79,4-4V49.75C25,47.54,23.21,45.75,21,45.75L21,45.75z" style="fill:#616161;"/>
    </g>
  </g>
  <g style="opacity:0.2;">
    <path d="M115.94,31c1.65,0,3,1.35,3,3v59c0,1.65-1.35,3-3,3H12.23c-1.65,0-3-1.35-3-3V34c0-1.65,1.35-3,3-3 H115.94 M115.94,28H12.23c-3.31,0-6,2.69-6,6v59c0,3.3,2.7,6,6,6h103.71c3.3,0,6-2.7,6-6V34C121.94,30.69,119.25,28,115.94,28 L115.94,28z" style="fill:#424242;"/>
  </g>
</svg>
